X: 15962
T: Grant's
R: reel
M: 4/4
K: Dmajor
Ac|:d2 AG FADA|FADF A2A,/A,/G,|A,DFD A,DFD|CEA,C EA,Cc|
d2 AG FADA|FADF ADFA|~B2 gf edcd|1 ed{e}dc de{a}fe:|2 ed{e}dc d2 (3ABc||
|:defg afdf|{a} gfed ceAc|defg af{a}gf|edcB A2 A=c|
BGBd AFAF|G2ED =CDEC|D2 (3efg fdec|1 d2 {e}dc dBAc:|2 d2 {e}dc de{a}fe||

